X: 3163
T: Miss Ramsays Reel
O: Very Old.
%R: reel
B: Niel Gow & Sons "Complete Repository" v.3 p.16 #3 (plus top 2 staffs of p.17)
Z: 2021 John Chambers <jc:trillian.mit.edu>
M: C|
L: 1/8
K: G
% - - - - - - - - - -
V: 1 staves=2
g |\
(b/a/g/)f/ g.d BGGB | cABG TA>GEg | (b/a/g/)f/ g.d BGGB | c>Ad>B G/G/G G :| e | dg-g.e .db-ba | gedB TA>G Ee |
dg-g>e db-b>a | g>edB G/G/G Ge || dg-g>e db-b>a | gedB TA>G Eg | dg-g>e (dg/a/) ba | g>e dB G/G/G G |]
% - - - - - - - - - -
V: 2 clef=bass middle=d
z |\
g2g2 g2g2 | f2g2 d2c2 | B2G2 G2B2 | c2d2 G2G :| z | g2g2 g2g2 | g2g2 d2c2 |
B2G2 G2B2 | c2d2 G2G2 || g2g2 g2g2 | g2g2 d2c2 | B2G2 G2B2 | c2d2 G2G |]
